X: 653
T: Jin tan shisheng
%%abc-version 2.0
%%abcx-abcm2ps-target-version 5.9.1 (29 Sep 2008)
%%abc-creator hum2abc beta
%%abcx-conversion-date 2013/10/02 07:52:30
%%abc-edited-by Helmut Schaffrath
%%humdrum-veritas 1739185241
%%humdrum-veritas-data 3924108038
%%continueall 1
%%barnumbers 0
L: 1/8
M: 2/4
K: F
F E D C [I:setbarnb 1]| 
D Cc2 | 
d c/ c/ c A | 
G4 | 
G Ac2 | 
f f d c | 
c A G F/ D/ | 
C4 | 
C DF2 | 
G Ac2 | 
c A G F | 
D4 | 
c dc2 | 
f dc2 | 
c F G A | 
c A G F/ D/ | 
C4 |]  



